X: 10
T: Teetotaller's, The
Z: leprecawn
S: https://thesession.org/tunes/114#setting48896
R: reel
M: 4/4
L: 1/8
K: Gmaj
|:(3DEF|G2GF GABc|d2eB dBAc|BEED EFGA|BGAGF GFED|
DGGF GABc|d2eB dBAc|BEED EFGA|BcAF G2:|
|:A2|Beed e2 ef|geaf gfed|Bdd^c d2 de|fdaf gfed|
Beed e2 ef|geaf gfed|BEED EFGA|BcAF G2:|

